X: 345
T: Fang shao
L: 1/16
M: 2/4
K: Bb
c'2 c' c' b c' d' f' [I:setbarnb 1]| 
c'2 c' c' b2 g2 | 
c'2 d' f' d' c' b g | 
g f e cf4 | 
c'2 f g2< c'2 b | 
g b g f2< e2 f | 
g2 g b g f e d | 
c2> B2c4 |]

@@@ Tune index: 9219
